X:1
T:It Is I, Be Not Afraid
T:It Is I, Be Not Afraid
T:S. Foster Ames, 1917
T:D. A. Woodworth, 1901 (arranged)
T:Public Domain Courtesy of the Cyber Hymnal™
C:S. Foster Ames, 1917
Z:Public Domain
Z:Courtesy of the Cyber Hymnal™
%%score ( 1 2 ) ( 3 4 )
L:1/8
Q:1/4=82
M:4/4
K:C
V:1 treble 
V:2 treble 
V:3 bass 
V:4 bass 
V:1
 C>[CD] | [CE]>[DF] [EG][FA] [EG][CE] [Ge]>[^Gd] | [Ac]>[GB] [Ac][FA] [EG]2 [EG][EG] | %3
w: 1.~Are you|weak in faith and doubt- ing? Doubt no|more, be not dis- mayed, Doubt not|
w: 2.~In your|hours of dark fore- bod- ing, In dis-|trust of earth- ly aid, Hear the|
w: 3.~He who|knows our ev- ery weak- ness, He to|ev- ery- one hath said, “Be not|
w: 4.~Do you|fear to cross the riv- er? There is|naught for you to fear, Je- sus|
 [FA]>[Ac] [GB][FA] [EG][EG]C[CE] |"^riten." [DG]>[DG] [EG][FG] !fermata![EG] || %5
w: Je- sus’ words as- sur- ing, “It is|I, be not a- fraid.”|
w: gra- cious Lord pro- claim- ing, “It is|I, be not a- fraid.”|
w: faith- less, but be- liev- ing, It is|I, be not a- fraid.”|
w: calls you, list- en to Him, “I’ll be|there to bless and cheer.”|
"^Refrain" [EG][^D^F][EG] | [FA]4- [FA][FA][F^G][FA] | [FB]6 fd | %8
w: |||
w: Be not a-|fraid, * be not dis-|mayed, It is|
w: |||
w: |||
 (z2 [GB])G !fermata![^FA]!fermata![=FB] x2 | c6 x4 |] %10
w: ||
w: * I, be not|a-|
w: ||
w: ||
V:2
 C3/2 x/ | x8 | x8 | x6 C x | x5 || x3 | x8 | x8 | (B4- G G G) x | (E^D E>F E6) |] %10
V:3
 [C,E,]>[C,F,] | [C,G,]>[C,G,] [C,C][C,C] [C,C][C,G,] [C,C]>[E,C] | %2
w: ~ ~|~ ~ ~ ~ ~ ~ ~ ~|
 [F,C]>[F,C] [F,C][F,C] [C,C]2 [C,C][C,C] | [F,C]>[F,A,] [F,B,][F,C] [C,C][C,G,][A,,A,][A,,A,] | %4
w: ~ ~ ~ ~ ~ ~ ~|~ ~ ~ ~ ~ ~ ~ ~|
 [G,,B,]>[G,,B,] [G,,C][G,,D] [C,C] || z3 | z [F,C][F,C][F,C] [F,C][D,D][D,D][D,D] | %7
w: ~ ~ ~ ~ ~||Be not a- fraid, ~ ~ ~|
 [G,D][G,D][G,D][G,D] [G,D]2 z2 | z2 [G,F][G,D] [G,B,][G,B,]!fermata![G,C]!fermata![G,D] | %9
w: ~ be not dis- mayed,|It is I, ~ ~ ~|
 C^F, G,>_A, G,6 |] %10
w: ~ be not a- fraid.|
V:4
 x2 | x8 | x8 | x8 | x5 || x3 | x8 | x8 | x8 | C,6 x4 |] %10

